!!!COM: Palestrina, Giovanni Perluigi da
!!!OPR: Missa In duplicibus minoribus (I)
!!!OMD: Gloria
!!!OTL: Qui tollis
**kern	**kern	**kern	**kern	**kern
*Ibass	*Itenor	*Itenor	*Icalto	*Icant
!Bassus	!Tenor 2	!Tenor 1	!Altus	!Cantus
*clefF4	*clefGv2	*clefGv2	*clefG2	*clefG2
*k[]	*k[]	*k[]	*k[]	*k[]
*E:phr	*E:phr	*E:phr	*E:phr	*E:phr
*M4/2	*M4/2	*M4/2	*M4/2	*M4/2
=73	=73	=73	=73	=73
0r	1A	0r	0r	0r
.	1G#	.	.	.
=74	=74	=74	=74	=74
0r	1A	0r	1r	1a
.	2r	.	1e	1g#
.	2E	.	.	.
=75	=75	=75	=75	=75
0r	2F#	0r	1d	2a
.	1G	.	.	1b
.	.	.	2e	.
.	[2A	.	2e	[2cc
=76	=76	=76	=76	=76
0r	4A]	0r	1f	4cc]
.	4G	.	.	4b
.	2.F	.	.	4a
.	.	.	.	4g
.	.	.	2.d	4f
.	4E	.	.	4g
.	4D	.	.	[2a
.	4E	.	4c	.
=77	=77	=77	=77	=77
0r	2F	0r	2d	2a]
.	2G	.	1e	2g
.	2A	.	.	1f
.	2B	.	2d	.
=78	=78	=78	=78	=78
1r	1c	1A	1e	0e
1E	2.B	1G#	2r	.
.	.	.	2e	.
.	4c	.	.	.
=79	=79	=79	=79	=79
1D	4d	2A	1f	0r
.	4c	.	.	.
.	4B	1B	.	.
.	4A	.	.	.
2E	1G	.	2e	.
2E	.	[2c	2e	.
=80	=80	=80	=80	=80
1F	0A	4c]	2c	0r
.	.	4B	.	.
.	.	4A	2c	.
.	.	4G	.	.
2.D	.	4F	[1d	.
.	.	4G	.	.
.	.	[2A	.	.
4C	.	.	.	.
=81	=81	=81	=81	=81
2D	0r	2A]	2d]	0r
1E	.	2G	2B	.
.	.	1F	1r	.
2D	.	.	.	.
=82	=82	=82	=82	=82
1E	2.B	1E	2r	1g
.	.	.	1e	.
.	8A	.	.	.
.	8B	.	.	.
1r	2c	1r	.	1a
.	2d	.	2f	.
=83	=83	=83	=83	=83
1C	2.e	1G	1g	1.cc
.	4d	.	.	.
[1F	2.c	1A	[1f	.
.	.	.	.	2cc
.	4B	.	.	.
=84	=84	=84	=84	=84
2F]	0A	1.c	2f]	2.cc
2F	.	.	2f	.
.	.	.	.	4b
1F	.	.	[1f	4cc
.	.	.	.	4b
.	.	2c	.	4a
.	.	.	.	4g#
=85	=85	=85	=85	=85
1F	2r	1c	1f]	1a
.	2A	.	.	.
2G	2B	1r	1e	1r
[2A	[2c	.	.	.
=86	=86	=86	=86	=86
2A]	2c]	2r	2f	0r
4G	2d	2B	1g	.
4F	.	.	.	.
2E	2G	2c	.	.
2D	2A	[2d	2f	.
=87	=87	=87	=87	=87
2E	2r	2d]	2g	0r
1F	2.A	2c	1a	.
.	.	2d	.	.
.	4B	.	.	.
4E	[2c	[2e	[2g	.
4D	.	.	.	.
=88	=88	=88	=88	=88
2C	4c]	2e]	2g]	0r
.	4B	.	.	.
2D	1A	2d	2.f	.
1E	.	2c	.	.
.	.	.	4e	.
.	2G	2B	[2e	.
=89	=89	=89	=89	=89
1F	2c	1A	2e]	1r
.	4B	.	2d	.
.	4A	.	.	.
1E	4G#	2B	[1e	1b
.	2A	.	.	.
.	.	[2E	.	.
.	4G#	.	.	.
=90	=90	=90	=90	=90
2AA	1A	2E]	2e]	2cc#
2D	.	2F	2d	1dd
1AA	2r	2E	1e	.
.	[2A	2E	.	2cc#
=91	=91	=91	=91	=91
1D	2A]	2D	1f	1dd
.	2B	2F	.	.
4C	1c	2.G	2e	1ee
4D	.	.	.	.
4E	.	.	[2g	.
4F	.	4A	.	.
=92	=92	=92	=92	=92
1G	2B	4B	2g]	1dd
.	.	4c	.	.
.	2.G	4d	2g	.
.	.	4B	.	.
2C	.	2.c	[1e	[1cc
.	4E	.	.	.
4AA	[2A	.	.	.
4BB	.	4d	.	.
=93	=93	=93	=93	=93
4C	2A]	2e	0e]	2cc]
4D	.	.	.	.
2E	2G#	2B	.	2b
1AA	1A	1c	.	1a
=94	=94	=94	=94	=94
[0E	[0G#	[0B	[0e	[0b
=95	=95	=95	=95	=95
0E]	0G#]	0B]	0e]	0b]
*-	*-	*-	*-	*-
!!!CDT: 1525/^1526/-1594/2/2
!!!OCY: Italia
!!!AGN: Mass (Paraphrase)
!!!AST: renaissance, vocal
!!!ASW: Gregorian Mass
!!!PWK: Masses, Book Mantuan I
!!!RNB: Cadence finals: A
!!!YOR: Le Opere Complete, v. 18, p. 42
!!!YOO: Rome, Italy: Fratelli Scalera
!!!END: 1992//
!!!EED: John Miller
!!!YEC: Copyright 2000, John Miller
!!!YEN: United States of America
!!!YEM: Rights to all derivative electronic formats reserved.
!!!YEM: Refer to licensing agreement for further details.
!!!YEM: This file must be accompanied by the licensing agreement.
!!!YEM: A copy of the licensing agreement may be found at http://www.music-cog.ohio-state.edu/HumdrumDatabases/Palestrina/license.txt
!!!EMD: converted to Humdrum by Bret Aarden
